src/assets/images/icon button.svg

<svg width="24" height="24" viewBox="0 0 24 24" fill="none" xmlns="http://www.w3.org/2000/svg">
<g clip-path="url(#clip0_3476_1197)">
<path d="M24 12C24 5.37231 18.6277 0 12 0C5.37231 0 0 5.37231 0 12C0 18.6277 5.37231 24 12 24C18.6277 24 24 18.6277 24 12Z" fill="#F8604A"/>
<path d="M16.2 19.2201H13.7797V6.71981H12.5603C10.4797 6.71981 9.4403 7.76011 9.4403 9.32011C9.4403 11.0601 10.14 11.9195 11.7 12.9598L12.9203 13.8201L9.45968 19.1998H6.6803L9.9803 14.3398C8.07968 12.9598 7.0403 11.7395 7.0403 9.47981C7.0403 6.6995 8.93999 4.7998 12.6 4.7998H16.2V19.2201Z" fill="white"/>
</g>
<defs>
<clipPath id="clip0_3476_1197">
<rect width="24" height="24" fill="white"/>
</clipPath>
</defs>
</svg>

<svg xmlns="http://www.w3.org/2000/svg" width="24" height="24" fill="none" viewBox="0 0 24 24"><g clip-path="url(#a)"><path fill="#f8604a" d="M24 12c0-6.628-5.372-12-12-12S0 5.372 0 12s5.372 12 12 12 12-5.372 12-12"/><path fill="#fff" d="M16.2 19.22h-2.42V6.72h-1.22c-2.08 0-3.12 1.04-3.12 2.6 0 1.74.7 2.6 2.26 3.64l1.22.86-3.46 5.38H6.68l3.3-4.86c-1.9-1.38-2.94-2.6-2.94-4.86 0-2.78 1.9-4.68 5.56-4.68h3.6z"/></g><defs><clipPath id="a"><path fill="#fff" d="M0 0h24v24H0z"/></clipPath></defs></svg>
